assets/svg/upgrade.svg

<?xml version="1.0" encoding="UTF-8"?>
<svg width="1000px" height="1000px" viewBox="0 0 1000 1000" version="1.1" xmlns="http://www.w3.org/2000/svg" xmlns:xlink="http://www.w3.org/1999/xlink">
    <!-- Generator: sketchtool 52.4 (67378) - http://www.bohemiancoding.com/sketch -->
    <title>upgrade</title>
    <desc>Created with sketchtool.</desc>
    <g id="新版图标" stroke="none" stroke-width="1" fill="none" fill-rule="evenodd">
        <g id="upgrade" fill="#323233">
            <g id="圆角-升级">
                <path d="M500,888.888889 C714.777403,888.888889 888.888889,714.777403 888.888889,500 C888.888889,285.222597 714.777403,111.111111 500,111.111111 C285.222597,111.111111 111.111111,285.222597 111.111111,500 C111.111111,714.777403 285.222597,888.888889 500,888.888889 Z M500,944.444444 C254.540111,944.444444 55.5555556,745.459889 55.5555556,500 C55.5555556,254.540111 254.540111,55.5555556 500,55.5555556 C745.459889,55.5555556 944.444444,254.540111 944.444444,500 C944.444444,745.459889 745.459889,944.444444 500,944.444444 Z" id="Oval" fill-rule="nonzero"></path>
                <path d="M471.82739,385.70225 L344.797987,512.731653 C344.602725,512.926915 344.286143,512.926915 344.09088,512.731653 L305.514277,474.15505 C305.319015,473.959788 305.319015,473.643205 305.514277,473.447943 L501.225721,277.736499 C501.420983,277.541237 501.737565,277.541237 501.932828,277.736499 L540.509431,316.313103 L697.644271,473.447943 C697.839533,473.643205 697.839533,473.959788 697.644271,474.15505 L659.067668,512.731653 C658.872406,512.926915 658.555823,512.926915 658.360561,512.731653 L527.382946,381.754038 L527.382946,721.32739 C527.382946,721.603533 527.159088,721.82739 526.882946,721.82739 L472.32739,721.82739 C472.051248,721.82739 471.82739,721.603533 471.82739,721.32739 L471.82739,385.70225 Z" id="Combined-Shape"></path>
            </g>
        </g>
    </g>
</svg>

<svg width="1000" height="1000" xmlns="http://www.w3.org/2000/svg"><g fill="#323233" fill-rule="evenodd"><path d="M500 888.889c214.777 0 388.889-174.112 388.889-388.889 0-214.777-174.112-388.889-388.889-388.889-214.777 0-388.889 174.112-388.889 388.889 0 214.777 174.112 388.889 388.889 388.889zm0 55.555C254.54 944.444 55.556 745.46 55.556 500S254.54 55.556 500 55.556 944.444 254.54 944.444 500 745.46 944.444 500 944.444z" fill-rule="nonzero"/><path d="M471.827 385.702l-127.029 127.03a.5.5 0 0 1-.707 0l-38.577-38.577a.5.5 0 0 1 0-.707l195.712-195.712a.5.5 0 0 1 .707 0l38.576 38.577 157.135 157.135a.5.5 0 0 1 0 .707l-38.576 38.577a.5.5 0 0 1-.707 0L527.383 381.754v339.573a.5.5 0 0 1-.5.5h-54.556a.5.5 0 0 1-.5-.5V385.702z"/></g></svg>
